X: 1134
T: My Wife's My Own
M: 9/8
L: 1/8
R: slip jig
K: B Dorian
F2 B B2 c d2 B | F2 B- B2 d cBA |
F2 B B2 c d2 B | c2 A A2 d cBA :|
F2 f f2 e d2 B | F2 B- B2 d cBA |
F2 f f2 e d2 B | c2 A A2 d cBA :|
